svg/powerbi.svg

<svg xmlns="http://www.w3.org/2000/svg" width="96" height="96" fill="none" viewBox="0 0 96 96"><defs><filter id="filter0_f"><feFlood flood-opacity="0" result="BackgroundImageFix"/><feBlend in="SourceGraphic" in2="BackgroundImageFix" mode="normal" result="shape"/><feGaussianBlur result="effect1_foregroundBlur" stdDeviation=".4"/></filter><filter id="filter1_f"><feFlood flood-opacity="0" result="BackgroundImageFix"/><feBlend in="SourceGraphic" in2="BackgroundImageFix" mode="normal" result="shape"/><feGaussianBlur result="effect1_foregroundBlur" stdDeviation="4"/></filter><linearGradient id="paint0_linear" x1="46.667" x2="88.865" y1="0" y2="89.447" gradientUnits="userSpaceOnUse"><stop stop-color="#E6AD10"/><stop offset="1" stop-color="#C87E0E"/></linearGradient><linearGradient id="paint1_linear" x1="31.997" x2="67.486" y1="24" y2="92.826" gradientUnits="userSpaceOnUse"><stop stop-color="#F6D751"/><stop offset="1" stop-color="#E6AD10"/></linearGradient><linearGradient id="paint2_linear" x1="11.997" x2="31.608" y1="48" y2="94.478" gradientUnits="userSpaceOnUse"><stop stop-color="#F9E589"/><stop offset="1" stop-color="#F6D751"/></linearGradient><clipPath id="clip0"><rect width="96" height="96" fill="#fff"/></clipPath></defs><g clip-path="url(#clip0)"><mask id="mask0" width="72" height="96" x="12" y="0" mask-type="alpha" maskUnits="userSpaceOnUse"><path fill="#fff" d="M52 4C52 1.79086 53.7909 0 56 0H80C82.2091 0 84 1.79086 84 4V92C84 94.2091 82.2091 96 80 96H16C13.7909 96 12 94.2091 12 92V52C12 49.7909 13.7909 48 16 48H32.0001V28C32.0001 25.7909 33.791 24 36.0001 24H52V4Z"/></mask><g mask="url(#mask0)"><path fill="url(#paint0_linear)" d="M84 0L84 96H52L52 0H84Z"/><g filter="url(#filter0_f)"><path fill="#000" fill-opacity=".2" d="M64 28.4V96.4H32V24.4H60C62.2091 24.4 64 26.1909 64 28.4Z"/></g><g filter="url(#filter1_f)"><path fill="#000" fill-opacity=".18" d="M64 30V98H32V26H60C62.2091 26 64 27.7909 64 30Z"/></g><path fill="url(#paint1_linear)" d="M64 28V96H32V24H60C62.2091 24 64 25.7909 64 28Z"/><path fill="url(#paint2_linear)" d="M12 48V96H44V52C44 49.7909 42.2091 48 40 48H12Z"/></g></g></svg>

<svg xmlns="http://www.w3.org/2000/svg" width="96" height="96" fill="none"><defs><linearGradient id="c" x1="46.667" x2="88.865" y1="0" y2="89.447" gradientUnits="userSpaceOnUse"><stop stop-color="#E6AD10"/><stop offset="1" stop-color="#C87E0E"/></linearGradient><linearGradient id="f" x1="31.997" x2="67.486" y1="24" y2="92.826" gradientUnits="userSpaceOnUse"><stop stop-color="#F6D751"/><stop offset="1" stop-color="#E6AD10"/></linearGradient><linearGradient id="g" x1="11.997" x2="31.608" y1="48" y2="94.478" gradientUnits="userSpaceOnUse"><stop stop-color="#F9E589"/><stop offset="1" stop-color="#F6D751"/></linearGradient><filter id="d"><feFlood flood-opacity="0" result="BackgroundImageFix"/><feBlend in="SourceGraphic" in2="BackgroundImageFix" result="shape"/><feGaussianBlur result="effect1_foregroundBlur" stdDeviation=".4"/></filter><filter id="e"><feFlood flood-opacity="0" result="BackgroundImageFix"/><feBlend in="SourceGraphic" in2="BackgroundImageFix" result="shape"/><feGaussianBlur result="effect1_foregroundBlur" stdDeviation="4"/></filter><clipPath id="a"><path fill="#fff" d="M0 0h96v96H0z"/></clipPath></defs><g clip-path="url(#a)"><mask id="b" width="72" height="96" x="12" y="0" mask-type="alpha" maskUnits="userSpaceOnUse"><path fill="#fff" d="M52 4a4 4 0 0 1 4-4h24a4 4 0 0 1 4 4v88a4 4 0 0 1-4 4H16a4 4 0 0 1-4-4V52a4 4 0 0 1 4-4h16V28a4 4 0 0 1 4-4h16z"/></mask><g mask="url(#b)"><path fill="url(#c)" d="M84 0v96H52V0z"/><g filter="url(#d)"><path fill="#000" fill-opacity=".2" d="M64 28.4v68H32v-72h28a4 4 0 0 1 4 4"/></g><g filter="url(#e)"><path fill="#000" fill-opacity=".18" d="M64 30v68H32V26h28a4 4 0 0 1 4 4"/></g><path fill="url(#f)" d="M64 28v68H32V24h28a4 4 0 0 1 4 4"/><path fill="url(#g)" d="M12 48v48h32V52a4 4 0 0 0-4-4z"/></g></g></svg>
